X:842
T:Bob Steele 
C:Joe Buchanan's Scottish Tome - Page 407.1
I:407 1
Z:Carl Allison
R:Strathspey
M:4/4
K:Dmaj
|:A | "D"D<(DF>A) (d>B)(d<f) | D<(DF>D) "A7"E<B,B,>E | "D"D<(DF>A) (d>c)(d>A) | (3"G"Bcd "A7"(3ABG "D"(F<D) D :| 
A | "D"(d>ef)>g (a>ba)>d | "Am"(=c>de)>f (a>ag)>e | "D"(d>ef)>g (a>ba)>d | "G"(3gfe "A7"(3bag "D"(f<d)(d>g) | 
"D"(3fdf (3afB "A7"(3gfg (3efg | "D"(3fdf "A"(3ece "G"(3dcB "D7"(3ABc | "G"(3BGB (3dcB "D"(3Afe (3dcB | "A7"(3ABA (3GFE "D"(F<D) D |] 
%
W:Errata: Added a repeat quarter-note A at start of tune

